img/cursor.svg

<svg fill="none" height="42" viewBox="0 0 37 42" width="37" xmlns="http://www.w3.org/2000/svg"><path d="m35.5312 16.9709c0-2.177-1.7669-3.937-3.9416-3.937-2.1746 0-3.9415 1.7649-3.9415 3.937v-2.526c0-2.177-1.7669-3.937-3.9416-3.937-1.898 0-3.4853 1.343-3.859 3.1273v-8.69823c0-2.17697-1.767-3.93697-3.9416-3.93697-2.1747 0-3.9416 1.76485-3.9416 3.93697v18.26423l-4.23281-4.2279c-1.53876-1.5369-4.03865-1.5369-5.57742 0-1.538761 1.537-1.538761 4.034 0 5.5709 0 0 12.37813 12.354 12.46543 12.4267 2.1941 2.4727 5.393 4.0291 8.9559 4.0291 6.6065 0 11.9655-5.3527 11.9655-11.9515v-12.0679z" fill="#fff" stroke="#4a3636" stroke-linecap="round" stroke-linejoin="round" stroke-width="2"/></svg>

<svg width="37" height="42" viewBox="0 0 37 42" fill="none" xmlns="http://www.w3.org/2000/svg">
<path d="M35.5312 16.9709C35.5312 14.7939 33.7643 13.0339 31.5896 13.0339C29.415 13.0339 27.6481 14.7988 27.6481 16.9709V14.4449C27.6481 12.2679 25.8812 10.5079 23.7065 10.5079C21.8085 10.5079 20.2212 11.8509 19.8475 13.6352V4.93697C19.8475 2.76 18.0805 1 15.9059 1C13.7312 1 11.9643 2.76485 11.9643 4.93697V23.2012L7.73149 18.9733C6.19273 17.4364 3.69284 17.4364 2.15407 18.9733C0.615309 20.5103 0.615309 23.0073 2.15407 24.5442C2.15407 24.5442 14.5322 36.8982 14.6195 36.9709C16.8136 39.4436 20.0125 41 23.5754 41C30.1819 41 35.5409 35.6473 35.5409 29.0485V16.9806L35.5312 16.9709Z" fill="white" stroke="#4A3636" stroke-width="2" stroke-linecap="round" stroke-linejoin="round"/>
</svg>
